(Created with Marlin post processor 2015/09/15 13:45)
G90 
(left_inner)
G0 Z40 F10000
G0 X5.461 Y8.983  
M3 S10000
G4 S3
G0 Z2  
G1 Z-0.4 F60 
G1 X6.347 Y8.983 F140 
G1 X6.522 Y8.952  
G1 X6.576 Y8.921  
G1 X6.616 Y8.873  
G1 X6.638 Y8.814  
G1 X6.638 Y8.752  
G1 X6.616 Y8.693  
G1 X6.576 Y8.645  
G1 X6.522 Y8.614  
G1 X6.347 Y8.583  
G1 X4.574 Y8.583  
G1 X4.399 Y8.614  
G1 X4.345 Y8.645  
G1 X4.305 Y8.693  
G1 X4.283 Y8.752  
G1 X4.283 Y8.814  
G1 X4.305 Y8.873  
G1 X4.345 Y8.921  
G1 X4.399 Y8.952  
G1 X4.574 Y8.983  
G1 X5.461 Y8.983  
G1 Z-0.8 F60 
G1 X6.347 Y8.983 F140 
G1 X6.522 Y8.952  
G1 X6.576 Y8.921  
G1 X6.616 Y8.873  
G1 X6.638 Y8.814  
G1 X6.638 Y8.752  
G1 X6.616 Y8.693  
G1 X6.576 Y8.645  
G1 X6.522 Y8.614  
G1 X6.347 Y8.583  
G1 X4.574 Y8.583  
G1 X4.399 Y8.614  
G1 X4.345 Y8.645  
G1 X4.305 Y8.693  
G1 X4.283 Y8.752  
G1 X4.283 Y8.814  
G1 X4.305 Y8.873  
G1 X4.345 Y8.921  
G1 X4.399 Y8.952  
G1 X4.574 Y8.983  
G1 X5.461 Y8.983  
G1 Z-1.2 F60 
G1 X6.347 Y8.983 F140 
G1 X6.522 Y8.952  
G1 X6.576 Y8.921  
G1 X6.616 Y8.873  
G1 X6.638 Y8.814  
G1 X6.638 Y8.752  
G1 X6.616 Y8.693  
G1 X6.576 Y8.645  
G1 X6.522 Y8.614  
G1 X6.347 Y8.583  
G1 X4.574 Y8.583  
G1 X4.399 Y8.614  
G1 X4.345 Y8.645  
G1 X4.305 Y8.693  
G1 X4.283 Y8.752  
G1 X4.283 Y8.814  
G1 X4.305 Y8.873  
G1 X4.345 Y8.921  
G1 X4.399 Y8.952  
G1 X4.574 Y8.983  
G1 X5.461 Y8.983  
G1 Z-1.6 F60 
G1 X6.347 Y8.983 F140 
G1 X6.522 Y8.952  
G1 X6.576 Y8.921  
G1 X6.616 Y8.873  
G1 X6.638 Y8.814  
G1 X6.638 Y8.752  
G1 X6.616 Y8.693  
G1 X6.576 Y8.645  
G1 X6.522 Y8.614  
G1 X6.347 Y8.583  
G1 X4.574 Y8.583  
G1 X4.399 Y8.614  
G1 X4.345 Y8.645  
G1 X4.305 Y8.693  
G1 X4.283 Y8.752  
G1 X4.283 Y8.814  
G1 X4.305 Y8.873  
G1 X4.345 Y8.921  
G1 X4.399 Y8.952  
G1 X4.574 Y8.983  
G1 X5.461 Y8.983  
G1 Z-2 F60 
G1 X6.347 Y8.983 F140 
G1 X6.522 Y8.952  
G1 X6.576 Y8.921  
G1 X6.616 Y8.873  
G1 X6.638 Y8.814  
G1 X6.638 Y8.752  
G1 X6.616 Y8.693  
G1 X6.576 Y8.645  
G1 X6.522 Y8.614  
G1 X6.347 Y8.583  
G1 X4.574 Y8.583  
G1 X4.399 Y8.614  
G1 X4.345 Y8.645  
G1 X4.305 Y8.693  
G1 X4.283 Y8.752  
G1 X4.283 Y8.814  
G1 X4.305 Y8.873  
G1 X4.345 Y8.921  
G1 X4.399 Y8.952  
G1 X4.574 Y8.983  
G1 X5.461 Y8.983  
G0 Z30 F10000 
G90
(right_inner)
G0 X50.401 Y8.973  
M3 S10000
G4 S3
G0 Z2  
G1 Z-0.4 F40 
G1 X51.287 Y8.973 F160 
G1 X51.462 Y8.942  
G1 X51.516 Y8.911  
G1 X51.556 Y8.863  
G1 X51.578 Y8.804  
G1 X51.578 Y8.742  
G1 X51.556 Y8.683  
G1 X51.516 Y8.635  
G1 X51.462 Y8.604  
G1 X51.287 Y8.573  
G1 X49.514 Y8.573  
G1 X49.339 Y8.604  
G1 X49.285 Y8.635  
G1 X49.245 Y8.683  
G1 X49.223 Y8.742  
G1 X49.223 Y8.804  
G1 X49.245 Y8.863  
G1 X49.285 Y8.911  
G1 X49.339 Y8.942  
G1 X49.514 Y8.973  
G1 X50.401 Y8.973  
G1 Z-0.8 F40 
G1 X51.287 Y8.973 F160 
G1 X51.462 Y8.942  
G1 X51.516 Y8.911  
G1 X51.556 Y8.863  
G1 X51.578 Y8.804  
G1 X51.578 Y8.742  
G1 X51.556 Y8.683  
G1 X51.516 Y8.635  
G1 X51.462 Y8.604  
G1 X51.287 Y8.573  
G1 X49.514 Y8.573  
G1 X49.339 Y8.604  
G1 X49.285 Y8.635  
G1 X49.245 Y8.683  
G1 X49.223 Y8.742  
G1 X49.223 Y8.804  
G1 X49.245 Y8.863  
G1 X49.285 Y8.911  
G1 X49.339 Y8.942  
G1 X49.514 Y8.973  
G1 X50.401 Y8.973  
G1 Z-1.2 F40 
G1 X51.287 Y8.973 F160 
G1 X51.462 Y8.942  
G1 X51.516 Y8.911  
G1 X51.556 Y8.863  
G1 X51.578 Y8.804  
G1 X51.578 Y8.742  
G1 X51.556 Y8.683  
G1 X51.516 Y8.635  
G1 X51.462 Y8.604  
G1 X51.287 Y8.573  
G1 X49.514 Y8.573  
G1 X49.339 Y8.604  
G1 X49.285 Y8.635  
G1 X49.245 Y8.683  
G1 X49.223 Y8.742  
G1 X49.223 Y8.804  
G1 X49.245 Y8.863  
G1 X49.285 Y8.911  
G1 X49.339 Y8.942  
G1 X49.514 Y8.973  
G1 X50.401 Y8.973  
G1 Z-1.6 F40 
G1 X51.287 Y8.973 F160 
G1 X51.462 Y8.942  
G1 X51.516 Y8.911  
G1 X51.556 Y8.863  
G1 X51.578 Y8.804  
G1 X51.578 Y8.742  
G1 X51.556 Y8.683  
G1 X51.516 Y8.635  
G1 X51.462 Y8.604  
G1 X51.287 Y8.573  
G1 X49.514 Y8.573  
G1 X49.339 Y8.604  
G1 X49.285 Y8.635  
G1 X49.245 Y8.683  
G1 X49.223 Y8.742  
G1 X49.223 Y8.804  
G1 X49.245 Y8.863  
G1 X49.285 Y8.911  
G1 X49.339 Y8.942  
G1 X49.514 Y8.973  
G1 X50.401 Y8.973  
G1 Z-2 F40 
G1 X51.287 Y8.973 F160 
G1 X51.462 Y8.942  
G1 X51.516 Y8.911  
G1 X51.556 Y8.863  
G1 X51.578 Y8.804  
G1 X51.578 Y8.742  
G1 X51.556 Y8.683  
G1 X51.516 Y8.635  
G1 X51.462 Y8.604  
G1 X51.287 Y8.573  
G1 X49.514 Y8.573  
G1 X49.339 Y8.604  
G1 X49.285 Y8.635  
G1 X49.245 Y8.683  
G1 X49.223 Y8.742  
G1 X49.223 Y8.804  
G1 X49.245 Y8.863  
G1 X49.285 Y8.911  
G1 X49.339 Y8.942  
G1 X49.514 Y8.973  
G1 X50.401 Y8.973  
G0 Z30 F10000 
G90
(Outer)
G0 X27.961 Y-0.016  
M3 S10000
G4 S3
G0 Z2  
G1 Z-0.36 F60 
G1 X53.461 Y-0.016 F190 
G1 X53.538 Y-0.014  
G1 X53.618 Y-0.009  
G1 X53.791 Y0.005  
G1 X54.026 Y0.042  
G1 X54.25 Y0.107  
G1 X54.576 Y0.226  
G1 X54.854 Y0.355  
G1 X54.869 Y0.364  
G1 X55.121 Y0.541  
G1 X55.384 Y0.761  
G1 X55.602 Y0.981  
G1 X55.613 Y0.994  
G1 X55.787 Y1.244  
G1 X55.959 Y1.541  
G1 X56.089 Y1.82  
G1 X56.091 Y1.827  
G1 X56.092 Y1.829  
G1 X56.096 Y1.838  
G1 X56.173 Y2.129  
G1 X56.233 Y2.471  
G1 X56.253 Y2.618  
G1 X56.261 Y2.783  
G1 X56.261 Y14.783  
G1 X56.259 Y14.865  
G1 X56.254 Y14.94  
G1 X56.239 Y15.114  
G1 X56.203 Y15.344  
G1 X56.137 Y15.572  
G1 X56.018 Y15.899  
G1 X55.887 Y16.178  
G1 X55.879 Y16.193  
G1 X55.706 Y16.44  
G1 X55.482 Y16.706  
G1 X55.263 Y16.925  
G1 X55.25 Y16.936  
G1 X55.004 Y17.108  
G1 X54.703 Y17.282  
G1 X54.424 Y17.411  
G1 X54.417 Y17.414  
G1 X54.416 Y17.414  
G1 X54.407 Y17.418  
G1 X54.115 Y17.495  
G1 X53.773 Y17.556  
G1 X53.625 Y17.575  
G1 X53.461 Y17.583  
G1 X2.461 Y17.583  
G1 X2.378 Y17.581  
G1 X2.304 Y17.576  
G1 X2.13 Y17.561  
G1 X1.901 Y17.525  
G1 X1.671 Y17.459  
G1 X1.345 Y17.341  
G1 X1.067 Y17.211  
G1 X1.052 Y17.202  
G1 X0.804 Y17.028  
G1 X0.538 Y16.805  
G1 X0.322 Y16.59  
G1 X0.311 Y16.576  
G1 X0.136 Y16.326  
G1 X-0.037 Y16.025  
G1 X-0.165 Y15.75  
G1 X-0.168 Y15.744  
G1 X-0.168 Y15.742  
G1 X-0.172 Y15.732  
G1 X-0.251 Y15.438  
G1 X-0.311 Y15.096  
G1 X-0.331 Y14.94  
G1 X-0.338 Y14.783  
G1 X-0.338 Y2.783  
G1 X-0.337 Y2.705  
G1 X-0.332 Y2.626  
G1 X-0.316 Y2.453  
G1 X-0.28 Y2.219  
G1 X-0.215 Y1.994  
G1 X-0.096 Y1.667  
G1 X0.032 Y1.391  
G1 X0.041 Y1.376  
G1 X0.219 Y1.122  
G1 X0.439 Y0.86  
G1 X0.654 Y0.645  
G1 X0.667 Y0.634  
G1 X0.921 Y0.456  
G1 X1.219 Y0.285  
G1 X1.493 Y0.156  
G1 X1.5 Y0.154  
G1 X1.503 Y0.153  
G1 X1.513 Y0.149  
G1 X1.806 Y0.071  
G1 X2.148 Y0.01  
G1 X2.304 Y-0.009  
G1 X2.461 Y-0.016  
G1 X27.961 Y-0.016  
G1 Z-0.72 F60 
G1 X53.461 Y-0.016 F190 
G1 X53.538 Y-0.014  
G1 X53.618 Y-0.009  
G1 X53.791 Y0.005  
G1 X54.026 Y0.042  
G1 X54.25 Y0.107  
G1 X54.576 Y0.226  
G1 X54.854 Y0.355  
G1 X54.869 Y0.364  
G1 X55.121 Y0.541  
G1 X55.384 Y0.761  
G1 X55.602 Y0.981  
G1 X55.613 Y0.994  
G1 X55.787 Y1.244  
G1 X55.959 Y1.541  
G1 X56.089 Y1.82  
G1 X56.091 Y1.827  
G1 X56.092 Y1.829  
G1 X56.096 Y1.838  
G1 X56.173 Y2.129  
G1 X56.233 Y2.471  
G1 X56.253 Y2.618  
G1 X56.261 Y2.783  
G1 X56.261 Y14.783  
G1 X56.259 Y14.865  
G1 X56.254 Y14.94  
G1 X56.239 Y15.114  
G1 X56.203 Y15.344  
G1 X56.137 Y15.572  
G1 X56.018 Y15.899  
G1 X55.887 Y16.178  
G1 X55.879 Y16.193  
G1 X55.706 Y16.44  
G1 X55.482 Y16.706  
G1 X55.263 Y16.925  
G1 X55.25 Y16.936  
G1 X55.004 Y17.108  
G1 X54.703 Y17.282  
G1 X54.424 Y17.411  
G1 X54.417 Y17.414  
G1 X54.416 Y17.414  
G1 X54.407 Y17.418  
G1 X54.115 Y17.495  
G1 X53.773 Y17.556  
G1 X53.625 Y17.575  
G1 X53.461 Y17.583  
G1 X2.461 Y17.583  
G1 X2.378 Y17.581  
G1 X2.304 Y17.576  
G1 X2.13 Y17.561  
G1 X1.901 Y17.525  
G1 X1.671 Y17.459  
G1 X1.345 Y17.341  
G1 X1.067 Y17.211  
G1 X1.052 Y17.202  
G1 X0.804 Y17.028  
G1 X0.538 Y16.805  
G1 X0.322 Y16.59  
G1 X0.311 Y16.576  
G1 X0.136 Y16.326  
G1 X-0.037 Y16.025  
G1 X-0.165 Y15.75  
G1 X-0.168 Y15.744  
G1 X-0.168 Y15.742  
G1 X-0.172 Y15.732  
G1 X-0.251 Y15.438  
G1 X-0.311 Y15.096  
G1 X-0.331 Y14.94  
G1 X-0.338 Y14.783  
G1 X-0.338 Y2.783  
G1 X-0.337 Y2.705  
G1 X-0.332 Y2.626  
G1 X-0.316 Y2.453  
G1 X-0.28 Y2.219  
G1 X-0.215 Y1.994  
G1 X-0.096 Y1.667  
G1 X0.032 Y1.391  
G1 X0.041 Y1.376  
G1 X0.219 Y1.122  
G1 X0.439 Y0.86  
G1 X0.654 Y0.645  
G1 X0.667 Y0.634  
G1 X0.921 Y0.456  
G1 X1.219 Y0.285  
G1 X1.493 Y0.156  
G1 X1.5 Y0.154  
G1 X1.503 Y0.153  
G1 X1.513 Y0.149  
G1 X1.806 Y0.071  
G1 X2.148 Y0.01  
G1 X2.304 Y-0.009  
G1 X2.461 Y-0.016  
G1 X27.961 Y-0.016  
G1 Z-1.08 F60 
G1 X53.461 Y-0.016 F190 
G1 X53.538 Y-0.014  
G1 X53.618 Y-0.009  
G1 X53.791 Y0.005  
G1 X54.026 Y0.042  
G1 X54.25 Y0.107  
G1 X54.576 Y0.226  
G1 X54.854 Y0.355  
G1 X54.869 Y0.364  
G1 X55.121 Y0.541  
G1 X55.384 Y0.761  
G1 X55.602 Y0.981  
G1 X55.613 Y0.994  
G1 X55.787 Y1.244  
G1 X55.959 Y1.541  
G1 X56.089 Y1.82  
G1 X56.091 Y1.827  
G1 X56.092 Y1.829  
G1 X56.096 Y1.838  
G1 X56.173 Y2.129  
G1 X56.233 Y2.471  
G1 X56.253 Y2.618  
G1 X56.261 Y2.783  
G1 X56.261 Y14.783  
G1 X56.259 Y14.865  
G1 X56.254 Y14.94  
G1 X56.239 Y15.114  
G1 X56.203 Y15.344  
G1 X56.137 Y15.572  
G1 X56.018 Y15.899  
G1 X55.887 Y16.178  
G1 X55.879 Y16.193  
G1 X55.706 Y16.44  
G1 X55.482 Y16.706  
G1 X55.263 Y16.925  
G1 X55.25 Y16.936  
G1 X55.004 Y17.108  
G1 X54.703 Y17.282  
G1 X54.424 Y17.411  
G1 X54.417 Y17.414  
G1 X54.416 Y17.414  
G1 X54.407 Y17.418  
G1 X54.115 Y17.495  
G1 X53.773 Y17.556  
G1 X53.625 Y17.575  
G1 X53.461 Y17.583  
G1 X2.461 Y17.583  
G1 X2.378 Y17.581  
G1 X2.304 Y17.576  
G1 X2.13 Y17.561  
G1 X1.901 Y17.525  
G1 X1.671 Y17.459  
G1 X1.345 Y17.341  
G1 X1.067 Y17.211  
G1 X1.052 Y17.202  
G1 X0.804 Y17.028  
G1 X0.538 Y16.805  
G1 X0.322 Y16.59  
G1 X0.311 Y16.576  
G1 X0.136 Y16.326  
G1 X-0.037 Y16.025  
G1 X-0.165 Y15.75  
G1 X-0.168 Y15.744  
G1 X-0.168 Y15.742  
G1 X-0.172 Y15.732  
G1 X-0.251 Y15.438  
G1 X-0.311 Y15.096  
G1 X-0.331 Y14.94  
G1 X-0.338 Y14.783  
G1 X-0.338 Y2.783  
G1 X-0.337 Y2.705  
G1 X-0.332 Y2.626  
G1 X-0.316 Y2.453  
G1 X-0.28 Y2.219  
G1 X-0.215 Y1.994  
G1 X-0.096 Y1.667  
G1 X0.032 Y1.391  
G1 X0.041 Y1.376  
G1 X0.219 Y1.122  
G1 X0.439 Y0.86  
G1 X0.654 Y0.645  
G1 X0.667 Y0.634  
G1 X0.921 Y0.456  
G1 X1.219 Y0.285  
G1 X1.493 Y0.156  
G1 X1.5 Y0.154  
G1 X1.503 Y0.153  
G1 X1.513 Y0.149  
G1 X1.806 Y0.071  
G1 X2.148 Y0.01  
G1 X2.304 Y-0.009  
G1 X2.461 Y-0.016  
G1 X27.961 Y-0.016  
G1 Z-1.44 F60 
G1 X53.461 Y-0.016 F190 
G1 X53.538 Y-0.014  
G1 X53.618 Y-0.009  
G1 X53.791 Y0.005  
G1 X54.026 Y0.042  
G1 X54.25 Y0.107  
G1 X54.576 Y0.226  
G1 X54.854 Y0.355  
G1 X54.869 Y0.364  
G1 X55.121 Y0.541  
G1 X55.384 Y0.761  
G1 X55.602 Y0.981  
G1 X55.613 Y0.994  
G1 X55.787 Y1.244  
G1 X55.959 Y1.541  
G1 X56.089 Y1.82  
G1 X56.091 Y1.827  
G1 X56.092 Y1.829  
G1 X56.096 Y1.838  
G1 X56.173 Y2.129  
G1 X56.233 Y2.471  
G1 X56.253 Y2.618  
G1 X56.261 Y2.783  
G1 X56.261 Y14.783  
G1 X56.259 Y14.865  
G1 X56.254 Y14.94  
G1 X56.239 Y15.114  
G1 X56.203 Y15.344  
G1 X56.137 Y15.572  
G1 X56.018 Y15.899  
G1 X55.887 Y16.178  
G1 X55.879 Y16.193  
G1 X55.706 Y16.44  
G1 X55.482 Y16.706  
G1 X55.263 Y16.925  
G1 X55.25 Y16.936  
G1 X55.004 Y17.108  
G1 X54.703 Y17.282  
G1 X54.424 Y17.411  
G1 X54.417 Y17.414  
G1 X54.416 Y17.414  
G1 X54.407 Y17.418  
G1 X54.115 Y17.495  
G1 X53.773 Y17.556  
G1 X53.625 Y17.575  
G1 X53.461 Y17.583  
G1 X2.461 Y17.583  
G1 X2.378 Y17.581  
G1 X2.304 Y17.576  
G1 X2.13 Y17.561  
G1 X1.901 Y17.525  
G1 X1.671 Y17.459  
G1 X1.345 Y17.341  
G1 X1.067 Y17.211  
G1 X1.052 Y17.202  
G1 X0.804 Y17.028  
G1 X0.538 Y16.805  
G1 X0.322 Y16.59  
G1 X0.311 Y16.576  
G1 X0.136 Y16.326  
G1 X-0.037 Y16.025  
G1 X-0.165 Y15.75  
G1 X-0.168 Y15.744  
G1 X-0.168 Y15.742  
G1 X-0.172 Y15.732  
G1 X-0.251 Y15.438  
G1 X-0.311 Y15.096  
G1 X-0.331 Y14.94  
G1 X-0.338 Y14.783  
G1 X-0.338 Y2.783  
G1 X-0.337 Y2.705  
G1 X-0.332 Y2.626  
G1 X-0.316 Y2.453  
G1 X-0.28 Y2.219  
G1 X-0.215 Y1.994  
G1 X-0.096 Y1.667  
G1 X0.032 Y1.391  
G1 X0.041 Y1.376  
G1 X0.219 Y1.122  
G1 X0.439 Y0.86  
G1 X0.654 Y0.645  
G1 X0.667 Y0.634  
G1 X0.921 Y0.456  
G1 X1.219 Y0.285  
G1 X1.493 Y0.156  
G1 X1.5 Y0.154  
G1 X1.503 Y0.153  
G1 X1.513 Y0.149  
G1 X1.806 Y0.071  
G1 X2.148 Y0.01  
G1 X2.304 Y-0.009  
G1 X2.461 Y-0.016  
G1 X27.961 Y-0.016  
G1 Z-1.8 F60 
G1 X53.461 Y-0.016 F190 
G1 X53.538 Y-0.014  
G1 X53.618 Y-0.009  
G1 X53.791 Y0.005  
G1 X54.026 Y0.042  
G1 X54.25 Y0.107  
G1 X54.576 Y0.226  
G1 X54.854 Y0.355  
G1 X54.869 Y0.364  
G1 X55.121 Y0.541  
G1 X55.384 Y0.761  
G1 X55.602 Y0.981  
G1 X55.613 Y0.994  
G1 X55.787 Y1.244  
G1 X55.959 Y1.541  
G1 X56.089 Y1.82  
G1 X56.091 Y1.827  
G1 X56.092 Y1.829  
G1 X56.096 Y1.838  
G1 X56.173 Y2.129  
G1 X56.233 Y2.471  
G1 X56.253 Y2.618  
G1 X56.261 Y2.783  
G1 X56.261 Y14.783  
G1 X56.259 Y14.865  
G1 X56.254 Y14.94  
G1 X56.239 Y15.114  
G1 X56.203 Y15.344  
G1 X56.137 Y15.572  
G1 X56.018 Y15.899  
G1 X55.887 Y16.178  
G1 X55.879 Y16.193  
G1 X55.706 Y16.44  
G1 X55.482 Y16.706  
G1 X55.263 Y16.925  
G1 X55.25 Y16.936  
G1 X55.004 Y17.108  
G1 X54.703 Y17.282  
G1 X54.424 Y17.411  
G1 X54.417 Y17.414  
G1 X54.416 Y17.414  
G1 X54.407 Y17.418  
G1 X54.115 Y17.495  
G1 X53.773 Y17.556  
G1 X53.625 Y17.575  
G1 X53.461 Y17.583  
G1 X2.461 Y17.583  
G1 X2.378 Y17.581  
G1 X2.304 Y17.576  
G1 X2.13 Y17.561  
G1 X1.901 Y17.525  
G1 X1.671 Y17.459  
G1 X1.345 Y17.341  
G1 X1.067 Y17.211  
G1 X1.052 Y17.202  
G1 X0.804 Y17.028  
G1 X0.538 Y16.805  
G1 X0.322 Y16.59  
G1 X0.311 Y16.576  
G1 X0.136 Y16.326  
G1 X-0.037 Y16.025  
G1 X-0.165 Y15.75  
G1 X-0.168 Y15.744  
G1 X-0.168 Y15.742  
G1 X-0.172 Y15.732  
G1 X-0.251 Y15.438  
G1 X-0.311 Y15.096  
G1 X-0.331 Y14.94  
G1 X-0.338 Y14.783  
G1 X-0.338 Y2.783  
G1 X-0.337 Y2.705  
G1 X-0.332 Y2.626  
G1 X-0.316 Y2.453  
G1 X-0.28 Y2.219  
G1 X-0.215 Y1.994  
G1 X-0.096 Y1.667  
G1 X0.032 Y1.391  
G1 X0.041 Y1.376  
G1 X0.219 Y1.122  
G1 X0.439 Y0.86  
G1 X0.654 Y0.645  
G1 X0.667 Y0.634  
G1 X0.921 Y0.456  
G1 X1.219 Y0.285  
G1 X1.493 Y0.156  
G1 X1.5 Y0.154  
G1 X1.503 Y0.153  
G1 X1.513 Y0.149  
G1 X1.806 Y0.071  
G1 X2.148 Y0.01  
G1 X2.304 Y-0.009  
G1 X2.461 Y-0.016  
G1 X27.961 Y-0.016  
G0 Z30 F10000 
G4 S5
M05
